icons/1_Primary/Boomi.svg

<svg width="1024" height="1024" fill="none" xmlns="http://www.w3.org/2000/svg"><g clip-path="url(#a)"><path d="M512 1024c282.77 0 512-229.23 512-512S794.77 0 512 0 0 229.23 0 512s229.23 512 512 512Z" fill="#728DBE"/><path d="M808.62 415.72a14.126 14.126 0 0 1 13.054 8.722 14.13 14.13 0 1 1-13.054-8.722Zm-413.35 47a57.066 57.066 0 0 1 42.391 96.062 57.07 57.07 0 0 1-39.391 18.028h-3a57.074 57.074 0 0 1-57.774-55.566 57.07 57.07 0 0 1 54.774-58.524h3Zm0 92.79a34.873 34.873 0 0 0 24.903-9.691 34.865 34.865 0 0 0 7.804-11.166 34.872 34.872 0 0 0 2.933-13.303v-1.69a35.539 35.539 0 1 0-71.07-.21 34.849 34.849 0 0 0 33.74 35.85c.54.197 1.116.279 1.69.24v-.03Zm129.49-92.79a57.059 57.059 0 1 1-22.925 109.706 57.058 57.058 0 0 1-35.075-52.556A56.35 56.35 0 0 1 522.65 463a7.904 7.904 0 0 1 2.11-.25v-.03Zm0 92.79a34.873 34.873 0 0 0 24.903-9.691 34.865 34.865 0 0 0 7.804-11.166 34.872 34.872 0 0 0 2.933-13.303v-1.69a35.539 35.539 0 1 0-71.07-.21 34.849 34.849 0 0 0 33.74 35.85 5.257 5.257 0 0 0 1.69.24v-.03ZM797.23 572V465.28a2.426 2.426 0 0 1 .167-.983 2.431 2.431 0 0 1 2.363-1.547h17.5a2.556 2.556 0 0 1 2.53 2.53V572a2.56 2.56 0 0 1-2.53 2.53h-17.5a2.561 2.561 0 0 1-2.53-2.53Zm-65.8-109.24a45.443 45.443 0 0 0-39 20.46c-7-12.65-20.25-20.46-39-20.46s-29.74 10.54-33.11 16v-17.28A2.526 2.526 0 0 0 618 459a3.896 3.896 0 0 0-1.48.42l-18.35 10.54a1.155 1.155 0 0 0-.63 1.05v100.77a2.431 2.431 0 0 0 .713 1.817 2.443 2.443 0 0 0 1.817.713h17.71c.336.012.67-.045.983-.167.312-.123.596-.309.834-.546a2.431 2.431 0 0 0 .713-1.817v-58.84c0-18.14 13.29-28.68 29.52-28.68s25.73 10.54 25.73 28.68v59.26a2.56 2.56 0 0 0 2.53 2.53h17.71a2.56 2.56 0 0 0 2.53-2.53v-60.74c.63-17.29 13.71-27.21 29.74-27.21 16.03 0 25.73 10.54 25.73 28.68v59.27a2.561 2.561 0 0 0 2.53 2.53H774a2.56 2.56 0 0 0 2.53-2.53v-64.11c-.18-26.57-15.99-45.34-45.1-45.34v.01Zm-467.34 0a57.994 57.994 0 0 0-40.28 15.4v-75.5a2.443 2.443 0 0 0-2.53-2.53c-.45.042-.884.186-1.27.42l-18.14 10.54a1.164 1.164 0 0 0-.63 1.05V572a2.56 2.56 0 0 0 2.53 2.53h17.73A2.562 2.562 0 0 0 224 572v-10.56a58.377 58.377 0 0 0 40.28 15.4 57.073 57.073 0 0 0 40.735-15.747 57.054 57.054 0 0 0 17.67-39.938 57.066 57.066 0 0 0-33.958-53.543A57.068 57.068 0 0 0 267 462.75l-2.91.01Zm0 92.79a34.891 34.891 0 0 1-24.903-9.691 34.883 34.883 0 0 1-10.737-24.469v-1.69a35.64 35.64 0 1 1 71.28 0A34.85 34.85 0 0 1 266 555.54l-1.91.01Z" fill="#fff"/></g><defs><clipPath id="a"><path fill="#fff" d="M0 0h1024v1024H0z"/></clipPath></defs></svg>

<svg width="1024" height="1024" viewBox="0 0 1024 1024" fill="none" xmlns="http://www.w3.org/2000/svg">
<g clip-path="url(#clip0_2_1707)">
<path d="M512 1024C794.77 1024 1024 794.77 1024 512C1024 229.23 794.77 0 512 0C229.23 0 0 229.23 0 512C0 794.77 229.23 1024 512 1024Z" fill="#728DBE"/>
<path d="M808.62 415.72C811.415 415.72 814.146 416.548 816.47 418.101C818.794 419.654 820.605 421.86 821.674 424.442C822.744 427.024 823.024 429.865 822.478 432.606C821.933 435.347 820.587 437.865 818.611 439.841C816.635 441.817 814.117 443.163 811.377 443.708C808.636 444.253 805.794 443.974 803.213 442.904C800.631 441.835 798.424 440.024 796.871 437.7C795.319 435.376 794.49 432.644 794.49 429.85C794.49 426.102 795.979 422.508 798.628 419.858C801.278 417.208 804.872 415.72 808.62 415.72ZM395.27 462.72C410.27 462.529 424.742 468.253 435.554 478.652C446.367 489.051 452.65 503.289 453.044 518.285C453.438 533.281 447.912 547.83 437.661 558.782C427.411 569.735 413.259 576.211 398.27 576.81H395.27C380.27 577 365.798 571.276 354.985 560.877C344.173 550.479 337.89 536.241 337.496 521.244C337.101 506.248 342.628 491.7 352.878 480.747C363.129 469.794 377.28 463.318 392.27 462.72H395.27ZM395.27 555.51C399.854 555.611 404.413 554.807 408.686 553.144C412.959 551.481 416.862 548.992 420.173 545.819C423.483 542.647 426.135 538.852 427.977 534.653C429.82 530.455 430.816 525.934 430.91 521.35V519.66C431.002 514.944 430.154 510.257 428.416 505.872C426.678 501.488 424.085 497.493 420.787 494.121C417.49 490.748 413.554 488.066 409.209 486.23C404.865 484.395 400.198 483.442 395.482 483.428C390.765 483.414 386.093 484.339 381.738 486.149C377.382 487.959 373.431 490.618 370.113 493.971C366.796 497.324 364.179 501.303 362.415 505.677C360.651 510.052 359.776 514.734 359.84 519.45C359.57 528.675 362.972 537.631 369.297 544.351C375.622 551.072 384.355 555.01 393.58 555.3C394.12 555.497 394.696 555.579 395.27 555.54V555.51ZM524.76 462.72C536 462.905 546.934 466.406 556.191 472.783C565.448 479.161 572.615 488.13 576.793 498.566C580.971 509.002 581.973 520.44 579.673 531.444C577.374 542.447 571.876 552.526 563.868 560.416C555.861 568.306 545.702 573.655 534.666 575.792C523.629 577.928 512.208 576.758 501.835 572.426C491.461 568.095 482.598 560.796 476.358 551.446C470.118 542.096 466.779 531.111 466.76 519.87C466.691 512.465 468.083 505.119 470.855 498.252C473.628 491.385 477.727 485.132 482.917 479.85C488.108 474.568 494.289 470.362 501.106 467.47C507.924 464.579 515.245 463.06 522.65 463C523.339 462.822 524.049 462.738 524.76 462.75V462.72ZM524.76 555.51C529.344 555.611 533.903 554.807 538.176 553.144C542.449 551.481 546.352 548.992 549.663 545.819C552.973 542.647 555.625 538.852 557.467 534.653C559.31 530.455 560.306 525.934 560.4 521.35V519.66C560.492 514.944 559.644 510.257 557.906 505.872C556.168 501.488 553.575 497.493 550.277 494.121C546.98 490.748 543.044 488.066 538.699 486.23C534.355 484.395 529.688 483.442 524.972 483.428C520.255 483.414 515.583 484.339 511.228 486.149C506.872 487.959 502.921 490.618 499.603 493.971C496.286 497.324 493.669 501.303 491.905 505.677C490.141 510.052 489.266 514.734 489.33 519.45C489.06 528.675 492.462 537.631 498.787 544.351C505.112 551.072 513.845 555.01 523.07 555.3C523.616 555.471 524.187 555.553 524.76 555.54V555.51ZM797.23 572V465.28C797.217 464.944 797.274 464.609 797.397 464.297C797.519 463.984 797.705 463.7 797.943 463.463C798.18 463.225 798.464 463.039 798.777 462.916C799.09 462.794 799.424 462.737 799.76 462.75H817.26C817.928 462.757 818.567 463.026 819.04 463.499C819.513 463.972 819.782 464.611 819.79 465.28V572C819.782 572.668 819.513 573.307 819.04 573.78C818.567 574.253 817.928 574.522 817.26 574.53H799.76C799.091 574.522 798.452 574.253 797.979 573.78C797.507 573.307 797.238 572.668 797.23 572ZM731.43 462.76C723.728 462.585 716.108 464.371 709.286 467.95C702.464 471.529 696.664 476.784 692.43 483.22C685.43 470.57 672.18 462.76 653.43 462.76C634.68 462.76 623.69 473.3 620.32 478.76V461.48C620.31 460.852 620.067 460.251 619.638 459.793C619.209 459.334 618.625 459.052 618 459C617.484 459.04 616.981 459.183 616.52 459.42L598.17 469.96C597.977 470.058 597.816 470.209 597.705 470.395C597.594 470.58 597.536 470.793 597.54 471.01V571.78C597.527 572.115 597.584 572.45 597.707 572.763C597.829 573.075 598.015 573.359 598.253 573.597C598.49 573.834 598.774 574.02 599.087 574.143C599.4 574.265 599.734 574.322 600.07 574.31H617.78C618.116 574.322 618.45 574.265 618.763 574.143C619.075 574.02 619.359 573.834 619.597 573.597C619.834 573.359 620.02 573.075 620.143 572.763C620.266 572.45 620.323 572.115 620.31 571.78V512.94C620.31 494.8 633.6 484.26 649.83 484.26C666.06 484.26 675.56 494.8 675.56 512.94V572.2C675.568 572.868 675.837 573.507 676.31 573.98C676.782 574.453 677.421 574.722 678.09 574.73H695.8C696.468 574.722 697.107 574.453 697.58 573.98C698.053 573.507 698.322 572.868 698.33 572.2V511.46C698.96 494.17 712.04 484.25 728.07 484.25C744.1 484.25 753.8 494.79 753.8 512.93V572.2C753.808 572.868 754.077 573.507 754.549 573.98C755.022 574.453 755.661 574.722 756.33 574.73H774C774.668 574.722 775.307 574.453 775.78 573.98C776.253 573.507 776.522 572.868 776.53 572.2V508.09C776.35 481.52 760.54 462.75 731.43 462.75V462.76ZM264.09 462.76C249.183 462.525 234.758 468.04 223.81 478.16V402.66C223.823 402.324 223.766 401.989 223.643 401.677C223.52 401.364 223.334 401.08 223.097 400.843C222.859 400.605 222.575 400.419 222.263 400.296C221.95 400.174 221.616 400.117 221.28 400.13C220.83 400.172 220.396 400.316 220.01 400.55L201.87 411.09C201.677 411.188 201.516 411.339 201.405 411.525C201.294 411.71 201.237 411.923 201.24 412.14V572C201.248 572.668 201.517 573.307 201.99 573.78C202.462 574.253 203.101 574.522 203.77 574.53H221.5C222.163 574.514 222.795 574.242 223.261 573.77C223.727 573.298 223.992 572.663 224 572V561.44C234.969 571.526 249.38 577.036 264.28 576.84C271.771 577.018 279.224 575.72 286.214 573.018C293.203 570.316 299.592 566.264 305.015 561.093C310.439 555.922 314.79 549.734 317.822 542.881C320.854 536.029 322.506 528.646 322.685 521.155C322.863 513.663 321.565 506.21 318.863 499.221C316.161 492.232 312.109 485.843 306.938 480.419C301.768 474.996 295.579 470.644 288.727 467.612C281.874 464.581 274.491 462.928 267 462.75L264.09 462.76ZM264.09 555.55C259.506 555.65 254.947 554.847 250.674 553.184C246.401 551.521 242.497 549.032 239.187 545.859C235.877 542.687 233.225 538.892 231.382 534.693C229.54 530.495 228.543 525.974 228.45 521.39V519.7C228.45 515.019 229.372 510.385 231.163 506.061C232.954 501.737 235.579 497.808 238.889 494.498C242.198 491.189 246.127 488.564 250.451 486.773C254.775 484.981 259.41 484.06 264.09 484.06C268.77 484.06 273.405 484.981 277.729 486.773C282.053 488.564 285.982 491.189 289.291 494.498C292.601 497.808 295.226 501.737 297.017 506.061C298.808 510.385 299.73 515.019 299.73 519.7C299.997 528.922 296.596 537.873 290.273 544.592C283.95 551.31 275.221 555.247 266 555.54L264.09 555.55Z" fill="white"/>
</g>
<defs>
<clipPath id="clip0_2_1707">
<rect width="1024" height="1024" fill="white"/>
</clipPath>
</defs>
</svg>
